assets/mail-icon.svg

<svg width="15" height="12" viewBox="0 0 15 12" fill="none" xmlns="http://www.w3.org/2000/svg">
<path d="M14.7158 3.71484C14.8301 3.62402 15 3.70898 15 3.85254V9.84375C15 10.6201 14.3701 11.25 13.5938 11.25H1.40625C0.629883 11.25 0 10.6201 0 9.84375V3.85547C0 3.70898 0.166992 3.62695 0.28418 3.71777C0.94043 4.22754 1.81055 4.875 4.79883 7.0459C5.41699 7.49707 6.45996 8.44629 7.5 8.44043C8.5459 8.44922 9.60938 7.47949 10.2041 7.0459C13.1924 4.875 14.0596 4.22461 14.7158 3.71484ZM7.5 7.5C8.17969 7.51172 9.1582 6.64453 9.65039 6.28711C13.5381 3.46582 13.834 3.21973 14.7305 2.5166C14.9004 2.38477 15 2.17969 15 1.96289V1.40625C15 0.629883 14.3701 0 13.5938 0H1.40625C0.629883 0 0 0.629883 0 1.40625V1.96289C0 2.17969 0.0996094 2.38184 0.269531 2.5166C1.16602 3.2168 1.46191 3.46582 5.34961 6.28711C5.8418 6.64453 6.82031 7.51172 7.5 7.5Z" fill="white"/>
</svg>

<svg width="15" height="12" fill="none" xmlns="http://www.w3.org/2000/svg"><path d="M14.716 3.715a.176.176 0 0 1 .284.138v5.99c0 .777-.63 1.407-1.406 1.407H1.406C.63 11.25 0 10.62 0 9.844V3.855c0-.146.167-.228.284-.137.656.51 1.527 1.157 4.515 3.328.618.451 1.661 1.4 2.701 1.394 1.046.01 2.11-.96 2.704-1.394 2.988-2.171 3.856-2.821 4.512-3.331zM7.5 7.5c.68.012 1.658-.855 2.15-1.213 3.888-2.821 4.184-3.067 5.08-3.77a.701.701 0 0 0 .27-.554v-.557C15 .63 14.37 0 13.594 0H1.406C.63 0 0 .63 0 1.406v.557c0 .217.1.419.27.554.896.7 1.192.949 5.08 3.77.492.358 1.47 1.225 2.15 1.213z" fill="#fff"/></svg>
